!!!!SEGMENT: pl-sa--236-a-vi-40--003_toeschi-carl-joseph--sinfonia-allegro.krn
!!!cenid: 17xx:2000
!!!COM: Toeschi, Carl Joseph
!!!COM-rismID:
!!!CDT: 1731-1788
!!!CNT: Italian
!!!OPR: Sinfonia
!!!OTL: Allegro
!!!OMV: 003
!!!PDT:
!!!AGN: Secular
!!!SMS-siglum: PL-SA
!!!SMS-shelfmark: 236/A VI 40
!!!SMS-shelfwork: 001-003 M
!!!SMS-variant:
!!!SMS-altvar:
!!!NIFC-rismSourceID: 1001035309
!!!NIFC-islandoraID:
!!!URL-pdf-islandora:
!!!URL-scan: https://bc.bdsandomierz.pl/dlibra/publication/1589/edition/1557/content @EN{Scan on Cyfrowa Biblioteka Diecezjalna w Sandomierzu} @PL{Skany w portalu Cyfrowa Biblioteka Diecezjalna w Sandomierzu}
!!!ONB-nifc: UWAGA: części Sinfonii: 1. Allegro, 2. Andante, 3. Allegro
!!!AIN: 2 oboe 1 viola 2 violn
!!!key: F
**kern	**kern	**dynam	**kern	**dynam	**kern	**dynam	**kern	**dynam
*group2	*group2	*	*group2	*	*group1	*	*group1	*
*part5	*part4	*part4	*part3	*part3	*part2	*part2	*part1	*part1
*staff5	*staff4	*	*staff3	*	*staff2	*	*staff1	*
*I"Violia	*I"Violino Secundo	*	*I"Violino Primo	*	*I"Oboa Secundo	*	*I"Oboa Prima	*
*I'[Vla]	*I'[Vl 2]	*	*I'[Vl 1]	*	*I'[Ob 2]	*	*I'[Ob 1]	*
*Iviola	*Ivioln	*	*Ivioln	*	*Ioboe	*	*Ioboe	*
*ICstr	*ICstr	*	*ICstr	*	*ICww	*	*ICww	*
*clefC3	*clefG2	*	*clefG2	*	*clefG2	*	*clefG2	*
*k[b-]	*k[b-]	*	*k[b-]	*	*k[b-]	*	*k[b-]	*
*F:	*F:	*	*F:	*	*F:	*	*F:	*
*M3/8	*M3/8	*	*M3/8	*	*M3/8	*	*M3/8	*
=1	=1	=1	=1	=1	=1	=1	=1	=1
!LO:TX:a:t=Allo&colon;	!LO:TX:a:t=Allo&colon;	!	!LO:TX:a:t=Allo	!	!LO:TX:a:t=Allo	!	!LO:TX:a:t=Allo&colon;	!
4f\	4f/	.	4f/	.	4f/	.	4f/	.
(>16c\LL	(<16c/LL	.	(<16c/LL	.	(<16c/LL	.	(<16c/LL	.
32d\L	32d/L	.	32d/L	.	32d/L	.	32d/L	.
32e\JJJ)	32e/JJJ)	.	32e/JJJ)	.	32e/JJJ)	.	32e/JJJ)	.
=2	=2	=2	=2	=2	=2	=2	=2	=2
4f\	4f/	.	4f/	.	4f/	.	4f/	.
(>16c\LL	(<16c/LL	.	(<16c/LL	.	(<16c/LL	.	(<16c/LL	.
32d\L	32d/L	.	32d/L	.	32d/L	.	32d/L	.
32e\JJJ)	32e/JJJ)	.	32e/JJJ)	.	32e/JJJ)	.	32e/JJJ)	.
=3	=3	=3	=3	=3	=3	=3	=3	=3
8f\L	(<8f/L	.	(<8f/L	.	(<8f/L	.	(<8f/L	.
8a\	8a/)	.	8a/)	.	8a/)	.	8a/)	.
!	!LO:TX:b:t=|:problem	!	!LO:TX:b:t=|:problem	!	!LO:TX:b:t=|:problem	!	!LO:TX:b:t=|:problem	!
8cc\J	8cc/J	.	8cc/J	.	8cc/J	.	8cc/J	.
=4	=4	=4	=4	=4	=4	=4	=4	=4
8b-\L	(<8b-/L	.	(<8b-/L	.	(<8b-/L	.	8b-/L	.
8g\	8g/)	.	8g/)	.	8g/)	.	8g/	.
!	!LO:TX:b:t=|:problem	!	!LO:TX:b:t=|:problem	!	!LO:TX:b:t=|:problem	!	!	!
8e\J	8e/J	.	8e/J	.	8e/J	.	8e/J	.
=5	=5	=5	=5	=5	=5	=5	=5	=5
!!mixed beam:problem
!	!LO:TX:t=P:problem=mixed beam	!	!LO:TX:t=P:problem=mixed beam	!	!	!	!	!
!	!LO:TX:a:t=|:problem	!LO:DY:a:rj:t=p&colon;	!	!LO:DY:a	!	!	!	!
8f\	8f/L	p	8f/L	p	8f/	.	8f/	.
!	!LO:TX:a:t=|:problem	!	!LO:TX:a:t=|:problem	!	!	!	!	!
8r	8aa\	.	8ccc\	.	8r	.	8r	.
!	!LO:TX:a:t=|:problem	!	!LO:TX:a:t=|:problem	!	!	!	!	!
8r	8gg\J	.	8bb-\J	.	8r	.	8r	.
=6	=6	=6	=6	=6	=6	=6	=6	=6
!	!LO:TX:a:t=|:problem	!	!LO:TX:a:t=|:problem	!	!	!	!	!
2.r	8ff\L	.	8aa\L	.	2.r	.	2.r	.
!	!LO:TX:a:t=|:problem	!	!LO:TX:a:t=|:problem	!	!	!	!	!
.	8ee\	.	8gg\	.	.	.	.	.
!	!LO:TX:a:t=|:problem	!	!LO:TX:a:t=|:problem	!	!	!	!	!
.	8dd\J	.	8ff\J	.	.	.	.	.
=7-	=7	=7	=7	=7	=7-	=7-	=7-	=7-
!	!LO:TX:a:t=|:problem	!	!LO:TX:a:t=|:problem	!	!	!	!	!
.	8cc\L	.	8ee\L	.	.	.	.	.
!	!LO:TX:a:t=|:problem	!	!LO:TX:a:t=|:problem	!	!	!	!	!
.	8b-\	.	8dd\	.	.	.	.	.
!	!LO:TX:a:t=|:problem	!	!LO:TX:a:t=|:problem	!	!	!	!	!
.	8a\J	.	8cc\J	.	.	.	.	.
=8-	=8	=8	=8	=8	=8-	=8-	=8-	=8-
!	!LO:TX:b:t=|:problem	!	!LO:TX:a:t=|:problem	!	!	!	!	!
4.r	8g/L	.	8b-\L	.	4.r	.	4.r	.
!	!LO:TX:b:t=|:problem	!	!LO:TX:a:t=|:problem	!	!	!	!	!
.	8f/	.	8a\	.	.	.	.	.
!	!LO:TX:b:t=|:problem	!	!LO:TX:a:t=|:problem	!	!	!	!	!
.	8e/J	.	8g\J	.	.	.	.	.
=9	=9	=9	=9	=9	=9	=9	=9	=9
!	!	!LO:DY:a:rj:t=f&colon;	!	!LO:DY:a	!	!	!	!
4f\	4f/	f	4f/	f	4f/	.	4f/	.
(>16c\LL	(<16c/LL	.	(<16c/LL	.	(<16c/LL	.	(<16c/LL	.
32d\L	32d/L	.	32d/L	.	32d/L	.	32d/L	.
32e\JJJ)	32e/JJJ)	.	32e/JJJ)	.	32e/JJJ)	.	32e/JJJ)	.
=10	=10	=10	=10	=10	=10	=10	=10	=10
4f\	4f/	.	4f/	.	4f/	.	4f/	.
(>16c\LL	(<16c/LL	.	(<16c/LL	.	(<16c/LL	.	(<16c/LL	.
32d\L	32d/L	.	32d/L	.	32d/L	.	32d/L	.
32e\JJJ)	32e/JJJ)	.	32e/JJJ)	.	32e/JJJ)	.	32e/JJJ)	.
=11	=11	=11	=11	=11	=11	=11	=11	=11
!	!LO:TX:b:t=|:problem	!	!	!	!	!	!	!
8f\L	8f/L	.	(<8f/L	.	(<8f/L	.	(<8f/L	.
!	!LO:TX:b:t=|:problem	!	!	!	!	!	!	!
8a\	8a/	.	8a/)	.	8a/)	.	8a/)	.
!	!LO:TX:b:t=|:problem	!	!LO:TX:b:t=|:problem	!	!LO:TX:b:t=|:problem	!	!LO:TX:b:t=|:problem	!
8cc\J	8cc/J	.	8cc/J	.	8cc/J	.	8cc/J	.
=12	=12	=12	=12	=12	=12	=12	=12	=12
8b-\L	8b-/L	.	(<8b-/L	.	(<8b-/L	.	(<8b-/L	.
8g\	8g/	.	8g/)	.	8g/)	.	8g/)	.
!	!	!	!LO:TX:b:t=|:problem	!	!LO:TX:b:t=|:problem	!	!LO:TX:b:t=|:problem	!
8e\J	8e/J	.	8e/J	.	8e/J	.	8e/J	.
=13	=13	=13	=13	=13	=13	=13	=13	=13
!!mixed beam:problem
!	!LO:TX:t=P:problem=mixed beam	!	!LO:TX:t=P:problem=mixed beam	!	!	!	!	!
!	!	!LO:DY:a:rj	!LO:TX:b:t=|:problem	!LO:DY:a	!	!	!	!
8f\	8f/L	p	8f/L	p	8f/	.	4f/	.
!	!LO:TX:a:t=|:problem	!	!LO:TX:a:t=|:problem	!	!	!	!	!
8r	8aa\	.	8ccc\	.	8r	.	.	.
!	!LO:TX:a:t=|:problem	!	!LO:TX:a:t=|:problem	!	!	!	!	!
8r	8gg\J	.	8bb-\J	.	8r	.	8r	.
!	!LO:LB:g=original	!	!	!	!	!	!	!
=14	=14	=14	=14	=14	=14	=14	=14	=14
!	!LO:TX:a:t=|:problem	!	!LO:TX:a:t=|:problem	!	!	!	!	!
2.r	8ff\L	.	8aa\L	.	2.r	.	2.r	.
!	!LO:TX:a:t=|:problem	!	!LO:TX:a:t=|:problem	!	!	!	!	!
.	8ee\	.	8gg\	.	.	.	.	.
!	!LO:TX:a:t=|:problem	!	!LO:TX:a:t=|:problem	!	!	!	!	!
.	8dd\J	.	8ff\J	.	.	.	.	.
!	!	!	!LO:LB:g=original	!	!	!	!	!
=15-	=15	=15	=15	=15	=15-	=15-	=15-	=15-
!	!LO:TX:a:t=|:problem	!	!LO:TX:a:t=|:problem	!	!	!	!	!
.	8cc\L	.	8ee\L	.	.	.	.	.
!	!LO:TX:a:t=|:problem	!	!LO:TX:a:t=|:problem	!	!	!	!	!
.	8b-\	.	8dd\	.	.	.	.	.
!	!LO:TX:a:t=|:problem	!	!LO:TX:a:t=|:problem	!	!	!	!	!
.	8a\J	.	8cc\J	.	.	.	.	.
=16-	=16	=16	=16	=16	=16-	=16-	=16-	=16-
!	!LO:TX:b:t=|:problem	!	!LO:TX:a:t=|:problem	!	!	!	!	!
4.r	8g/L	.	8b-\L	.	4.r	.	4.r	.
!	!LO:TX:b:t=|:problem	!	!LO:TX:a:t=|:problem	!	!	!	!	!
.	8f/	.	8a\	.	.	.	.	.
!	!LO:TX:b:t=|:problem	!	!LO:TX:a:t=|:problem	!	!	!	!	!
.	8e/J	.	8g\J	.	.	.	.	.
=17	=17	=17	=17	=17	=17	=17	=17	=17
!	!	!LO:DY:a:rj	!	!LO:DY:a	!	!	!	!
4f\	4f/	f	4f/	f	4f/	.	4f/	.
(>16c\LL	(<16c/LL	.	(<16c/LL	.	(<16c/LL	.	(<16c/LL	.
32d\L	32d/L	.	32d/L	.	32d/L	.	32d/L	.
32e\JJJ)	32e/JJJ)	.	32e/JJJ)	.	32e/JJJ)	.	32e/JJJ)	.
=18	=18	=18	=18	=18	=18	=18	=18	=18
!!mixed beam:problem
!LO:TX:t=P:problem=mixed beam	!	!	!	!	!	!	!	!
8f\L	8f/L	.	8f/L	.	[<4.f/	.	(<4.f/	.
8F/	(<16f/L	.	(<16f/L	.	.	.	.	.
.	16e/	.	16e/)	.	.	.	.	.
8f\J	16f/	.	(<16f/	.	.	.	.	.
.	16g/JJ)	.	16g/JJ)	.	.	.	.	.
=19	=19	=19	=19	=19	=19	=19	=19	=19
!!mixed beam:problem
!LO:TX:t=P:problem=mixed beam	!	!	!	!	!	!	!	!
8f\L	4f/	.	4a/	.	4.f/_<	.	4.a/)	.
8F/	.	.	.	.	.	.	.	.
8f\J	16f/LL	.	(<16f/LL	.	.	.	.	.
.	(<32e/L	.	32g/L	.	.	.	.	.
.	32f/JJJ)	.	32a/JJJ)	.	.	.	.	.
!	!	!	!	!	!LO:LB:g=original	!	!	!
=20	=20	=20	=20	=20	=20	=20	=20	=20
!!mixed beam:problem
!LO:TX:t=P:problem=mixed beam	!	!	!	!	!LO:TX:t=P:problem=brak zakończenia ligatury	!	!	!
8f\L	8f/L	.	8a/L	.	4.f/]	.	4.a/	.
8F/	(<16f/L	.	16a/L	.	.	.	.	.
.	16e/	.	16g/	.	.	.	.	.
8f\J	16f/)	.	16a/	.	.	.	.	.
.	16g/JJ	.	16b-/JJ	.	.	.	.	.
=21	=21	=21	=21	=21	=21	=21	=21	=21
!LO:TX:t=P:problem=repetycja taktów 18-20	!	!	!	!	!	!	!	!
!!mixed beam:problem
!LO:TX:t=P:problem=mixed beam	!	!	!	!	!	!	!	!
8f\Lyy	4a/	.	4cc\	.	4a/	.	(>4cc\	.
8F/yy	.	.	.	.	.	.	.	.
8f\Jyy	16a/LL	.	16cc\LL	.	(<16a/LL	.	16cc\LL	.
.	(<32b-/L	.	(>32dd\L	.	32b-/L	.	32dd\L)	.
.	32g/JJJ)	.	32ee\JJJ)	.	32g/JJJ)	.	32ee\JJJ	.
!	!	!	!	!	!	!	!LO:LB:g=original	!
=22	=22	=22	=22	=22	=22	=22	=22	=22
!!mixed beam:problem
!LO:TX:t=P:problem=mixed beam	!	!	!	!	!	!	!	!
8f\Lyy	8a/L	.	8ff\L	.	4.a/	.	4.ff\	.
8F/yy	(<16a/L	.	(>16ff\L	.	.	.	.	.
.	16g/	.	16ee\	.	.	.	.	.
8f\Jyy	16a/	.	16ff\	.	.	.	.	.
.	16b-/JJ)	.	16gg\JJ)	.	.	.	.	.
=23	=23	=23	=23	=23	=23	=23	=23	=23
8f\Lyy	8cc\L	.	4aa\	.	8cc\L	.	4aa\	.
8F/yy	8ff\J	.	.	.	8ff\J	.	.	.
8f\Jyy	(>16ff\LL	.	(>16ff\LL	.	(>16ff\LL	.	(>16ff\LL	.
.	32ee\L	.	32gg\L	.	32ee\L	.	32gg\L	.
.	32ff\JJJ)	.	32aa\JJJ)	.	32ff\JJJ)	.	32aa\JJJ)	.
=24	=24	=24	=24	=24	=24	=24	=24	=24
!!mixed beam:problem
!LO:TX:t=P:problem=mixed beam	!	!	!	!	!	!	!	!
8f\L	8ff\L	.	8aa\L	.	4ff\	.	4aa\	.
8F/	(>16ff\L	.	(>16aa\L	.	.	.	.	.
.	16ee\)	.	16gg\	.	.	.	.	.
8f\J	(>16ff\	.	(>16aa\)	.	8dd\	.	8bbn\	.
.	16dd\JJ)	.	16bbn\JJ)	.	.	.	.	.
=25	=25	=25	=25	=25	=25	=25	=25	=25
*tremolo	*tremolo	*	*	*	*	*	*	*
8e\L	16cc\LL	.	8ccc\L	.	8ee\	.	8ccc\	.
.	16cc\	.	.	.	.	.	.	.
8e\	16cc\	.	16ccc\L	.	8r	.	8r	.
.	16cc\	.	16bbn\	.	.	.	.	.
8e\J	16cc\	.	16ccc\	.	8r	.	8r	.
.	16cc\JJ	.	16ddd\JJ	.	.	.	.	.
!	!LO:LB:g=original	!	!LO:LB:g=original	!	!	!	!	!
=26	=26	=26	=26	=26	=26	=26	=26	=26
!	!	!	!LO:TX:t=P:problem=brak taktu	!	!	!	!	!LO:DY:a:t=p&colon;
8e\L	16cc\LL	.	4.ryy	.	[>4.cc\	.	[>4.cc\	p
.	16cc\	.	.	.	.	.	.	.
8e\	16cc\	.	.	.	.	.	.	.
.	16cc\	.	.	.	.	.	.	.
8e\J	16cc\	.	.	.	.	.	.	.
.	16cc\JJ	.	.	.	.	.	.	.
!LO:LB:g=original	!	!	!	!	!	!	!	!
=27	=27	=27	=27	=27	=27	=27	=27	=27
!	!	!	!	!LO:DY:a:rj:t=p&colon;	!	!	!	!
8f\L	16cc\LL	.	8aa\L	p	4.cc\_>	.	4.cc\_>	.
.	16cc\	.	.	.	.	.	.	.
8f\	16cc\	.	16aa\L	.	.	.	.	.
.	16cc\	.	16gg\	.	.	.	.	.
8f\J	16cc\	.	16aa\	.	.	.	.	.
.	16cc\JJ	.	16bb-\JJ	.	.	.	.	.
=28	=28	=28	=28	=28	=28	=28	=28	=28
8f\L	16cc\LL	.	16aa\LL	.	4.cc\_>	.	4.cc\_>	.
.	16cc\	.	16dd\	.	.	.	.	.
8f\	16cc\	.	16dd\	.	.	.	.	.
.	16cc\	.	16dd\	.	.	.	.	.
8f\J	16cc\	.	16dd\	.	.	.	.	.
.	16cc\JJ	.	16dd\JJ	.	.	.	.	.
*Xtremolo	*	*	*	*	*	*	*	*
=29	=29	=29	=29	=29	=29	=29	=29	=29
8f\L	16cc\LL	.	16aa\LL	.	4.cc\_>	.	4.cc\_>	.
.	16cc\	.	16dd\	.	.	.	.	.
8f\	16cc\	.	16dd\	.	.	.	.	.
.	16cc\	.	16dd\	.	.	.	.	.
8f#X\J	16cc\	.	16dd\	.	.	.	.	.
.	16cc\JJ	.	16dd\JJ	.	.	.	.	.
=30	=30	=30	=30	=30	=30	=30	=30	=30
!!mixed beam:problem
!LO:TX:t=P:problem=mixed beam	!	!	!	!LO:DY:a:rj:t=f&colon;	!	!	!	!
8g\L	16cc\LL	.	16aa\LL	f	4cc\]	.	4cc\]	.
.	16cc\	.	16dd\	.	.	.	.	.
8G/	16cc\	.	16dd\	.	.	.	.	.
.	16cc\	.	16dd\	.	.	.	.	.
8G/J	16cc\	.	16cc\	.	8a\	.	8a/	.
.	16cc\JJ	.	16cc\JJ	.	.	.	.	.
*	*Xtremolo	*	*	*	*	*	*	*
=31	=31	=31	=31	=31	=31	=31	=31	=31
4G/	16bn\LL	.	16bn/LL	.	8g/L	.	8g/L	.
.	16g\	.	16g/	.	.	.	.	.
.	16g\	.	16g/	.	8g/	.	8g/	.
.	16g\	.	16g/	.	.	.	.	.
8r	16g\	.	16g/	.	8g/J	.	8g/J	.
.	16g\JJ	.	16g/JJ	.	.	.	.	.
=32	=32	=32	=32	=32	=32	=32	=32	=32
2.r	4G/ 4g/	.	4G/ 4g/	.	4g/	.	4g/	.
.	8r	.	8r	.	8r	.	8r	.
=33-	=33	=33	=33	=33	=33	=33	=33	=33
*	*	*	*tremolo	*	*	*	*	*
!	!	!	!	!LO:DY:a:rj	!	!	!	!
.	2.r	.	16gg\LL	p	1.r	.	1.r	.
.	.	.	16gg\	.	.	.	.	.
.	.	.	16gg\	.	.	.	.	.
.	.	.	16gg\	.	.	.	.	.
.	.	.	16gg\	.	.	.	.	.
.	.	.	16gg\JJ	.	.	.	.	.
=34	=34-	=34-	=34	=34	=34-	=34-	=34-	=34-
!LO:TX:t=P:problem=brakujący takt (pauza)	!	!	!	!	!	!	!	!
4.ryy	.	.	16gg\LL	.	.	.	.	.
.	.	.	16gg\	.	.	.	.	.
.	.	.	16gg\	.	.	.	.	.
.	.	.	16gg\	.	.	.	.	.
.	.	.	16gg\	.	.	.	.	.
.	.	.	16gg\JJ	.	.	.	.	.
=35	=35	=35	=35	=35	=35-	=35-	=35-	=35-
*	*tremolo	*	*	*	*	*	*	*
!	!	!LO:DY:a:rj:t=p&colon;	!	!	!	!	!	!
4c/	16ee\LL	p	16gg\LL	.	.	.	.	.
.	16ee\	.	16gg\	.	.	.	.	.
.	16ee\	.	16gg\	.	.	.	.	.
.	16ee\	.	16gg\	.	.	.	.	.
(<16G/LL	16ee\	.	16gg\	.	.	.	.	.
32A/L	16ee\JJ	.	16gg\JJ	.	.	.	.	.
32Bn/JJJ)	.	.	.	.	.	.	.	.
=36	=36	=36	=36	=36	=36-	=36-	=36-	=36-
4c/	16ee\LL	.	16gg\LL	.	.	.	.	.
.	16ee\	.	16gg\	.	.	.	.	.
.	16ee\	.	16gg\	.	.	.	.	.
.	16ee\	.	16gg\	.	.	.	.	.
(<16G/LL	16ee\	.	16gg\	.	.	.	.	.
32A/L	16ee\JJ	.	16gg\JJ	.	.	.	.	.
32Bn/JJJ)	.	.	.	.	.	.	.	.
=37	=37	=37	=37	=37	=37	=37	=37	=37
!	!	!	!	!	!	!LO:DY:a:rj:t=pia	!	!LO:DY:a:rj
8c\L	16ee\LL	.	16gg\LL	.	4.ee\	p	[>4.gg\	p
.	16ee\	.	16gg\	.	.	.	.	.
8e\	16ee\	.	16gg\	.	.	.	.	.
.	16ee\	.	16gg\	.	.	.	.	.
8g\J	16ee\	.	16gg\	.	.	.	.	.
.	16ee\JJ	.	16gg\JJ	.	.	.	.	.
*	*Xtremolo	*	*	*	*	*	*	*
=38	=38	=38	=38	=38	=38	=38	=38	=38
8f\L	16dd\LL	.	16gg\LL	.	4dd\	.	4.gg\]	.
.	16dd\	.	16gg\	.	.	.	.	.
8d\	16dd\	.	16gg\	.	.	.	.	.
.	16dd\	.	16gg\	.	.	.	.	.
8Bn\J	16ff\	.	16gg\	.	8ff\	.	.	.
.	16ff\JJ	.	16gg\JJ	.	.	.	.	.
=39	=39	=39	=39	=39	=39	=39	=39	=39
*	*tremolo	*	*	*	*	*	*	*
!LO:TX:a:t=P:problem=repetycja taktów 35-38	!	!	!	!	!	!	!	!
4c/yy	16ee\LL	.	16gg\LL	.	8ee\	.	8gg\	.
.	16ee\	.	16gg\	.	.	.	.	.
.	16ee\	.	16gg\	.	8r	.	8r	.
.	16ee\	.	16gg\	.	.	.	.	.
(<16G/LLyy	16ee\	.	16gg\	.	8r	.	8r	.
32A/Lyy	16ee\JJ	.	16gg\JJ	.	.	.	.	.
32Bn/JJJ)yy	.	.	.	.	.	.	.	.
!	!	!	!LO:LB:g=original	!	!	!	!	!
=40	=40	=40	=40	=40	=40	=40	=40	=40
4c/yy	16ee\LL	.	16gg\LL	.	4.r	.	4.r	.
.	16ee\	.	16gg\	.	.	.	.	.
.	16ee\	.	16gg\	.	.	.	.	.
.	16ee\	.	16gg\	.	.	.	.	.
(<16G/LLyy	16ee\	.	16gg\	.	.	.	.	.
32A/Lyy	16ee\JJ	.	16gg\JJ	.	.	.	.	.
32Bn/JJJ)yy	.	.	.	.	.	.	.	.
=41	=41	=41	=41	=41	=41	=41	=41	=41
8c\Lyy	16ee\LL	.	16gg\LL	.	4.ee\	.	[>4.gg\	.
.	16ee\	.	16gg\	.	.	.	.	.
8e\yy	16ee\	.	16gg\	.	.	.	.	.
.	16ee\	.	16gg\	.	.	.	.	.
8g\Jyy	16ee\	.	16gg\	.	.	.	.	.
.	16ee\JJ	.	16gg\JJ	.	.	.	.	.
*	*Xtremolo	*	*	*	*	*	*	*
!	!LO:LB:g=original	!	!	!	!LO:LB:g=original	!	!	!
=42	=42	=42	=42	=42	=42	=42	=42	=42
8f\Lyy	16dd\LL	.	16gg\LL	.	4dd\	.	4.gg\_>	.
.	16dd\	.	16gg\	.	.	.	.	.
8d\yy	16dd\	.	16gg\	.	.	.	.	.
.	16dd\	.	16gg\	.	.	.	.	.
8Bn\Jyy	16ff\	.	16gg\	.	8ff\	.	.	.
.	16ff\JJ	.	16gg\JJ	.	.	.	.	.
*	*	*	*Xtremolo	*	*	*	*	*
=43	=43	=43	=43	=43	=43	=43	=43	=43
*	*tremolo	*	*	*	*	*	*	*
!	!	!LO:DY:a:rj	!	!LO:DY:a:rj	!	!	!	!
8c\L	16ee\LL	f	8gg\L	f	8ee\	.	8gg\]	.
.	16ee\	.	.	.	.	.	.	.
8e\	16ee\	.	16ccc\L	.	8r	.	8r	.
.	16ee\	.	16bbn\	.	.	.	.	.
8g\J	16ee\	.	16ccc\	.	8r	.	8r	.
.	16ee\JJ	.	16ddd\JJ	.	.	.	.	.
=44	=44	=44	=44	=44	=44	=44	=44	=44
*tremolo	*	*	*	*	*	*	*	*
8g\L	16ee\LL	.	8ccc\L	.	4.r	.	4.r	.
.	16ee\	.	.	.	.	.	.	.
8g\	16ee\	.	(>16ccc\L	.	.	.	.	.
.	16ee\	.	16bbn\)	.	.	.	.	.
8g\J	16ee\	.	(>16ccc\	.	.	.	.	.
.	16ee\JJ	.	16ddd\JJ)	.	.	.	.	.
*Xtremolo	*	*	*	*	*	*	*	*
=45	=45	=45	=45	=45	=45	=45	=45	=45
!!mixed beam:problem
!LO:TX:t=P:problem=mixed beam	!	!	!	!	!	!	!	!LO:DY:a:rj
8c/L	16ee\LL	.	16ccc\LL	.	[>4.ee\	.	[>4.gg\	f
.	16ee\	.	16gg\	.	.	.	.	.
8cc\	16ee\	.	16gg\	.	.	.	.	.
.	16ee\	.	16gg\	.	.	.	.	.
8c/J	16ee\	.	16gg\	.	.	.	.	.
.	16ee\JJ	.	16gg\JJ	.	.	.	.	.
=46	=46	=46	=46	=46	=46	=46	=46	=46
!!mixed beam:problem
!LO:TX:t=P:problem=mixed beam	!	!	!	!	!	!	!	!
8c/L	16ee\LL	.	16ccc\LL	.	4.ee\]	.	4.gg\]	.
.	16ee\	.	16gg\	.	.	.	.	.
8cc\	16ee\	.	16gg\	.	.	.	.	.
.	16ee\	.	16gg\	.	.	.	.	.
8c/J	16ee\	.	16gg\	.	.	.	.	.
.	16ee\JJ	.	16gg\JJ	.	.	.	.	.
!	!	!	!	!	!	!	!LO:LB:g=original	!
=47	=47	=47	=47	=47	=47	=47	=47	=47
!!mixed beam:problem
!	!	!	!LO:TX:t=P:problem=mixed beam	!	!	!	!	!
8f\L	16cc\LL	.	16aa\LL	.	[>4.cc\	.	4aa\	.
.	16cc\	.	16aa\	.	.	.	.	.
8f\	16cc\	.	16aa\	.	.	.	.	.
.	16cc\	.	16aa\	.	.	.	.	.
8f#X\J	16cc\	.	16f#X/	.	.	.	8f#X/	.
.	16cc\JJ	.	16f#/JJ	.	.	.	.	.
!	!	!	!LO:LB:g=original	!	!	!	!	!
=48	=48	=48	=48	=48	=48	=48	=48	=48
*tremolo	*	*	*	*	*	*	*	*
8g\L	16cc\LL	.	4.g/	.	4.cc\]	.	4.g/	.
.	16cc\	.	.	.	.	.	.	.
8g\	16cc\	.	.	.	.	.	.	.
.	16cc\	.	.	.	.	.	.	.
8g\J	16cc\	.	.	.	.	.	.	.
.	16cc\JJ	.	.	.	.	.	.	.
*	*Xtremolo	*	*	*	*	*	*	*
=49	=49	=49	=49	=49	=49	=49	=49	=49
8G/L	16cc\LL	.	4.dd\	.	4cc\	.	4.dd\	.
.	16cc\	.	.	.	.	.	.	.
8G/	16cc\	.	.	.	.	.	.	.
.	16cc\	.	.	.	.	.	.	.
8G/J	16bn\	.	.	.	8bn\	.	.	.
.	16b\JJ	.	.	.	.	.	.	.
*Xtremolo	*	*	*	*	*	*	*	*
!LO:LB:g=original	!	!	!	!	!	!	!	!
=50	=50	=50	=50	=50	=50	=50	=50	=50
!	!	!	!	!LO:DY:a:rj	!	!	!	!
8c\	8cc\	.	16cc\LL	p	8cc\	.	8cc\	.
.	.	.	16gg\	.	.	.	.	.
8r	8r	.	16gg\	.	8r	.	8r	.
.	.	.	16gg\	.	.	.	.	.
8r	8r	.	16gg\	.	8r	.	8r	.
.	.	.	16gg\JJ	.	.	.	.	.
=51	=51	=51	=51	=51	=51	=51	=51	=51
*	*	*	*tremolo	*	*	*	*	*
4.r	4.r	.	16gg\LL	.	2.r	.	2.r	.
.	.	.	16gg\	.	.	.	.	.
.	.	.	16gg\	.	.	.	.	.
.	.	.	16gg\	.	.	.	.	.
.	.	.	16gg\	.	.	.	.	.
.	.	.	16gg\JJ	.	.	.	.	.
!	!	!	!LO:LB:g=original	!	!	!	!	!
=52	=52	=52	=52	=52	=52-	=52-	=52-	=52-
*	*tremolo	*	*	*	*	*	*	*
!	!	!LO:DY:a:rj:t=p&colon;	!	!	!	!	!	!
4c/	16ee\LL	p	16gg\LL	.	.	.	.	.
.	16ee\	.	16gg\	.	.	.	.	.
.	16ee\	.	16gg\	.	.	.	.	.
.	16ee\	.	16gg\	.	.	.	.	.
(<16G/LL	16ee\	.	16gg\	.	.	.	.	.
32A/L	16ee\JJ	.	16gg\JJ	.	.	.	.	.
32Bn/JJJ)	.	.	.	.	.	.	.	.
=53	=53	=53	=53	=53	=53-	=53-	=53	=53
4c/	16ee\LL	.	16gg\LL	.	4.r	.	4.r	.
.	16ee\	.	16gg\	.	.	.	.	.
.	16ee\	.	16gg\	.	.	.	.	.
.	16ee\	.	16gg\	.	.	.	.	.
(<16G/LL	16ee\	.	16gg\	.	.	.	.	.
32A/L	16ee\JJ	.	16gg\JJ	.	.	.	.	.
32Bn/JJJ)	.	.	.	.	.	.	.	.
=54	=54	=54	=54	=54	=54	=54	=54	=54
!	!	!	!	!	!	!LO:DY:a:rj	!	!LO:DY:a:rj:t=p&colon;
8c\L	16ee\LL	.	16gg\LL	.	4.ee\	p	[>4.gg\	p
.	16ee\	.	16gg\	.	.	.	.	.
8e\	16ee\	.	16gg\	.	.	.	.	.
.	16ee\	.	16gg\	.	.	.	.	.
8g\J	16ee\	.	16gg\	.	.	.	.	.
.	16ee\JJ	.	16gg\JJ	.	.	.	.	.
*	*Xtremolo	*	*	*	*	*	*	*
=55	=55	=55	=55	=55	=55	=55	=55	=55
8f\L	16dd\LL	.	16gg\LL	.	4dd\	.	4.gg\_>	.
.	16dd\	.	16gg\	.	.	.	.	.
8d\	16dd\	.	16gg\	.	.	.	.	.
.	16dd\	.	16gg\	.	.	.	.	.
8Bn\J	16ff\	.	16gg\	.	8ff\	.	.	.
.	16ff\JJ	.	16gg\JJ	.	.	.	.	.
=56	=56	=56	=56	=56	=56	=56	=56	=56
*	*tremolo	*	*	*	*	*	*	*
!LO:TX:a:t=P:problem=repetycja taktów 52-55	!	!	!	!	!	!	!	!
4c/yy	16ee\LL	.	16gg\LL	.	4ee\	.	8gg\]	.
.	16ee\	.	16gg\	.	.	.	.	.
.	16ee\	.	16gg\	.	.	.	8r	.
.	16ee\	.	16gg\	.	.	.	.	.
(<16G/LLyy	16ee\	.	16gg\	.	8r	.	8r	.
32A/Lyy	16ee\JJ	.	16gg\JJ	.	.	.	.	.
32Bn/JJJ)yy	.	.	.	.	.	.	.	.
=57	=57	=57	=57	=57	=57	=57	=57	=57
4c/yy	16ee\LL	.	16gg\LL	.	4.r	.	4.r	.
.	16ee\	.	16gg\	.	.	.	.	.
.	16ee\	.	16gg\	.	.	.	.	.
.	16ee\	.	16gg\	.	.	.	.	.
(<16G/LLyy	16ee\	.	16gg\	.	.	.	.	.
32A/Lyy	16ee\JJ	.	16gg\JJ	.	.	.	.	.
32Bn/JJJ)yy	.	.	.	.	.	.	.	.
=58	=58	=58	=58	=58	=58	=58	=58	=58
8c\Lyy	16ee\LL	.	16gg\LL	.	4.ee\	.	4.gg\	.
.	16ee\	.	16gg\	.	.	.	.	.
8e\yy	16ee\	.	16gg\	.	.	.	.	.
.	16ee\	.	16gg\	.	.	.	.	.
8g\Jyy	16ee\	.	16gg\	.	.	.	.	.
.	16ee\JJ	.	16gg\JJ	.	.	.	.	.
*	*Xtremolo	*	*	*	*	*	*	*
!	!LO:LB:g=original	!	!	!	!	!	!	!
=59	=59	=59	=59	=59	=59	=59	=59	=59
8f\Lyy	16dd\LL	.	16gg\LL	.	4dd\	.	4.gg\	.
.	16dd\	.	16gg\	.	.	.	.	.
8d\yy	16dd\	.	16gg\	.	.	.	.	.
.	16dd\	.	16gg\	.	.	.	.	.
8Bn\Jyy	16ff\	.	16gg\	.	8ff\	.	.	.
.	16ff\JJ	.	16gg\JJ	.	.	.	.	.
*	*	*	*Xtremolo	*	*	*	*	*
=60	=60	=60	=60	=60	=60	=60	=60	=60
*	*tremolo	*	*	*	*	*	*	*
!	!	!LO:DY:a:rj	!	!LO:DY:a:rj:t=f.	!	!	!	!
8c\L	16ee\LL	f	8gg\L	f	8ee\	.	8gg\	.
.	16ee\	.	.	.	.	.	.	.
8e\	16ee\	.	(>16ccc\L	.	8r	.	8r	.
.	16ee\	.	16bbn\)	.	.	.	.	.
8g\J	16ee\	.	(>16ccc\	.	8r	.	8r	.
.	16ee\JJ	.	16ddd\JJ)	.	.	.	.	.
=61	=61	=61	=61	=61	=61	=61	=61	=61
*tremolo	*	*	*	*	*	*	*	*
8g\L	16ee\LL	.	8ccc\L	.	4.r	.	4.r	.
.	16ee\	.	.	.	.	.	.	.
8g\	16ee\	.	(>16ccc\L	.	.	.	.	.
.	16ee\	.	16bbn\)	.	.	.	.	.
8g\J	16ee\	.	(>16ccc\	.	.	.	.	.
.	16ee\JJ	.	16ddd\JJ)	.	.	.	.	.
*Xtremolo	*	*	*	*	*	*	*	*
!	!	!	!	!	!LO:LB:g=original	!	!	!
=62	=62	=62	=62	=62	=62	=62	=62	=62
!!mixed beam:problem
!LO:TX:t=P:problem=mixed beam	!	!	!	!	!	!	!	!
8c/L	16ee\LL	.	16ccc\LL	.	4.ee\	.	[>4.gg\	.
.	16ee\	.	16gg\	.	.	.	.	.
8cc\	16ee\	.	16gg\	.	.	.	.	.
.	16ee\	.	16gg\	.	.	.	.	.
8c/J	16ee\	.	16gg\	.	.	.	.	.
.	16ee\JJ	.	16gg\JJ	.	.	.	.	.
=63	=63	=63	=63	=63	=63	=63	=63	=63
!!mixed beam:problem
!LO:TX:t=P:problem=mixed beam	!	!	!	!	!	!	!	!
8c/L	16ee\LL	.	16ccc\LL	.	4.ee\	.	4.gg\]	.
.	16ee\	.	16gg\	.	.	.	.	.
8cc\	16ee\	.	16gg\	.	.	.	.	.
.	16ee\	.	16gg\	.	.	.	.	.
8c/J	16ee\	.	16gg\	.	.	.	.	.
.	16ee\JJ	.	16gg\JJ	.	.	.	.	.
=64	=64	=64	=64	=64	=64	=64	=64	=64
!!mixed beam:problem
!	!	!	!LO:TX:t=P:problem=mixed beam	!	!	!	!	!
8f\L	16cc\LL	.	16aa\LL	.	4.cc\	.	4aa\	.
.	16cc\	.	16aa\	.	.	.	.	.
8f\	16cc\	.	16aa\	.	.	.	.	.
.	16cc\	.	16aa\	.	.	.	.	.
8f#X\J	16cc\	.	16f#X/	.	.	.	8f#X/	.
.	16cc\JJ	.	16f#/JJ	.	.	.	.	.
!	!	!	!LO:LB:g=original	!	!	!	!	!
=65	=65	=65	=65	=65	=65	=65	=65	=65
*tremolo	*	*	*	*	*	*	*	*
8g\L	16cc\LL	.	4.g/	.	4.cc\	.	4.g/	.
.	16cc\	.	.	.	.	.	.	.
8g\	16cc\	.	.	.	.	.	.	.
.	16cc\	.	.	.	.	.	.	.
8g\J	16cc\	.	.	.	.	.	.	.
.	16cc\JJ	.	.	.	.	.	.	.
*	*Xtremolo	*	*	*	*	*	*	*
=66	=66	=66	=66	=66	=66	=66	=66	=66
8G/L	16cc\LL	.	4.dd\	.	4cc\	.	4.ddT>\	.
.	16cc\	.	.	.	.	.	.	.
8G/	16cc\	.	.	.	.	.	.	.
.	16cc\	.	.	.	.	.	.	.
8G/J	16bn\	.	.	.	8bn\	.	.	.
.	16b\JJ	.	.	.	.	.	.	.
*Xtremolo	*	*	*	*	*	*	*	*
=67	=67	=67	=67	=67	=67	=67	=67	=67
4c\	16cc\LL	.	16cc\LL	.	8cc\L	.	8cc\L	.
.	16cc\JJ	.	16cc\	.	.	.	.	.
.	16gg\LL	.	16gg\	.	8gg\	.	8gg\	.
.	16gg\JJ	.	16gg\	.	.	.	.	.
8r	16ee\LL	.	16ee\	.	8ee\J	.	8ee\J	.
.	16ee\JJ	.	16ee\JJ	.	.	.	.	.
=68	=68	=68	=68	=68	=68	=68	=68	=68
8cc\L	16cc\LL	.	16cc/LL	.	8cc/L	.	8cc/L	.
.	16cc\JJ	.	16cc/	.	.	.	.	.
8g\	16g/LL	.	16g/	.	8g/	.	8g/	.
.	16g/JJ	.	16g/	.	.	.	.	.
8e\J	16e/LL	.	16e/	.	8e/J	.	8e/J	.
.	16e/JJ	.	16e/JJ	.	.	.	.	.
=69	=69	=69	=69	=69	=69	=69	=69	=69
8c\L	8c/L	.	8c/L	.	8c/L	.	8c/L	.
8c\	8G/ 8e/ 8cc/	.	8G/ 8e/ 8cc/	.	8e/	.	8e/	.
8c\J	8G/J 8e/ 8cc/	.	8G/J 8e/ 8cc/	.	8e/J	.	8e/J	.
!LO:LB:g=original	!	!	!	!	!	!	!	!
=70	=70	=70	=70	=70	=70	=70	=70	=70
4c\	4G/ 4e/ 4cc/	.	4G/ 4e/ 4cc/	.	4e/	.	4e/	.
8r	8r	.	8r	.	8r	.	8r	.
=71:|!|:;>	=71:|!|:;>	=71:|!|:	=71:|!|:;>	=71:|!|:	=71:|!|:;>	=71:|!|:	=71:|!|:;>	=71:|!|:
4c\	4c/	.	4c/	.	1.r	.	1.r	.
(<16G/LL	(<16G/LL	.	(<16G/LL	.	.	.	.	.
32A/L	32A/L	.	32A/L)	.	.	.	.	.
!	!	!	!LO:TX:b:t=|:problem	!	!	!	!	!
32Bn/JJJ)	32Bn/JJJ)	.	32Bn/JJJ	.	.	.	.	.
!	!LO:LB:g=original	!	!	!	!	!	!	!
=72	=72	=72	=72	=72	=72-	=72-	=72-	=72-
4c\	4c/	.	4c/	.	.	.	.	.
(<16G/LL	(<16G/LL	.	16G/LL	.	.	.	.	.
32A/L	32A/L	.	32A/L	.	.	.	.	.
32Bn/JJJ)	32Bn/JJJ)	.	32Bn/JJJ	.	.	.	.	.
=73	=73	=73	=73	=73	=73-	=73-	=73-	=73-
8c\L	(<8c/L	.	(<8c/L	.	.	.	.	.
8e\	8e/)	.	8e/)	.	.	.	.	.
!	!LO:TX:b:t=|:problem	!	!LO:TX:b:t=|:problem	!	!	!	!	!
8g\J	8g/J	.	8g/J	.	.	.	.	.
=74	=74	=74	=74	=74	=74-	=74-	=74-	=74-
8f\L	(<8f/L	.	(<8f/L	.	.	.	.	.
8d\	8d/)	.	8d/)	.	.	.	.	.
!	!LO:TX:b:t=|:problem	!	!LO:TX:b:t=|:problem	!	!	!	!	!
8Bn\J	8Bn/J	.	8Bn/J	.	.	.	.	.
=75	=75	=75	=75	=75	=75-	=75-	=75-	=75-
!!mixed beam:problem
!	!	!	!LO:TX:t=P:problem=mixed beam	!	!	!	!	!
!	!LO:TX:t=P:problem=mixed beam	!LO:DY:a:t=p&colon;	!LO:TX:b:t=|:problem	!LO:DY:a:rj	!	!	!	!
8c\	8c/L	p	8c/L	p	1.r	.	1.r	.
!	!LO:TX:a:t=|:problem	!	!LO:TX:a:t=|:problem	!	!	!	!	!
8r	8ee\	.	8gg\	.	.	.	.	.
!	!LO:TX:a:t=|:problem	!	!LO:TX:a:t=|:problem	!	!	!	!	!
8r	8dd\J	.	8ff\J	.	.	.	.	.
=76	=76	=76	=76	=76	=76-	=76-	=76-	=76-
!	!	!	!LO:TX:a:t=|:problem	!	!	!	!	!
2.r	8cc\L	.	8ee\L	.	.	.	.	.
!	!	!	!LO:TX:a:t=|:problem	!	!	!	!	!
.	8bn\	.	8dd\	.	.	.	.	.
!	!	!	!LO:TX:a:t=|:problem	!	!	!	!	!
.	8a\J	.	8cc\J	.	.	.	.	.
=77-	=77	=77	=77	=77	=77-	=77-	=77-	=77-
!	!LO:TX:b:t=|:problem	!	!LO:TX:a:t=|:problem	!	!	!	!	!
.	8g/L	.	8bn\L	.	.	.	.	.
!	!LO:TX:b:t=|:problem	!	!LO:TX:a:t=|:problem	!	!	!	!	!
.	8f/	.	8a\	.	.	.	.	.
!	!LO:TX:b:t=|:problem	!	!LO:TX:a:t=|:problem	!	!	!	!	!
.	8e/J	.	8g\J	.	.	.	.	.
!	!	!	!LO:LB:g=original	!	!	!	!	!
=78-	=78	=78	=78	=78	=78-	=78-	=78-	=78-
!	!	!	!LO:TX:b:t=|:problem	!	!	!	!	!
4.r	8d/L	.	8f/L	.	.	.	.	.
!	!	!	!LO:TX:b:t=|:problem	!	!	!	!	!
.	8c/	.	8e/	.	.	.	.	.
!	!	!	!LO:TX:b:t=|:problem	!	!	!	!	!
.	8Bn/J	.	8d/J	.	.	.	.	.
=79	=79	=79	=79	=79	=79-	=79-	=79-	=79-
.	.	.	8qqd/	.	.	.	.	.
!	!	!LO:DY:a:t=f&colon;	!	!	!	!	!	!
4c/	4c/	f	4c/	.	2.r	.	2.r	.
(<16G/LL	(<16G/LL	.	(<16G/LL	.	.	.	.	.
32A/L	32A/L	.	32A/L	.	.	.	.	.
32Bn/JJJ)	32Bn/JJJ)	.	32Bn/JJJ)	.	.	.	.	.
=80	=80	=80	=80	=80	=80-	=80-	=80-	=80-
4c/	4c/	.	4c/	.	.	.	.	.
(<16G/LL	(<16G/LL	.	(<16G/LL	.	.	.	.	.
32A/L	32A/L	.	32A/L)	.	.	.	.	.
!	!	!	!LO:TX:b:t=|:problem	!	!	!	!	!
32Bn/JJJ)	32Bn/JJJ)	.	32Bn/JJJ	.	.	.	.	.
!	!	!	!	!	!	!	!LO:LB:g=original	!
=81	=81	=81	=81	=81	=81	=81	=81	=81
8c\L	(<8c/L	.	(<8c/L	.	(<8c/L	.	(<8c/L	.
8e\	8e/)	.	8e/)	.	8e/)	.	8e/)	.
!	!LO:TX:b:t=|:problem	!	!LO:TX:b:t=|:problem	!	!LO:TX:b:t=|:problem	!	!LO:TX:b:t=|:problem	!
8g\J	8g/J	.	8g/J	.	8g/J	.	8g/J	.
=82	=82	=82	=82	=82	=82	=82	=82	=82
8b-X\L	(>8b-X\L	.	(<8b-X/L	.	(<8b-/L	.	(>8b-\L	.
8a\	8a\)	.	8a/)	.	8a/)	.	8a\)	.
!	!LO:TX:a:t=|:problem	!	!LO:TX:b:t=|:problem	!	!LO:TX:b:t=|:problem	!	!LO:TX:a:t=|:problem	!
8g\J	8g\J	.	8g/J	.	8g/J	.	8g\J	.
=83	=83	=83	=83	=83	=83	=83	=83	=83
!!mixed beam:problem
!	!LO:TX:t=P:problem=mixed beam	!LO:DY:a:rj:t=p&colon;	!LO:TX:t=P:problem=mixed beam	!LO:DY:a:rj	!	!	!	!
8f\	8f/L	p	8f/L	p	8f/	.	8f/	.
!	!LO:TX:a:t=|:problem	!	!LO:TX:a:t=|:problem	!	!	!	!	!
8r	8aa\	.	8ccc\	.	8r	.	8r	.
!	!LO:TX:a:t=|:problem	!	!LO:TX:a:t=|:problem	!	!	!	!	!
8r	8gg\J	.	8bb-\J	.	8r	.	8r	.
!	!LO:LB:g=original	!	!	!	!	!	!	!
=84	=84	=84	=84	=84	=84	=84	=84	=84
!	!LO:TX:a:t=|:problem	!	!LO:TX:a:t=|:problem	!	!	!	!	!
2.r	8ff\L	.	8aa\L	.	2.r	.	2.r	.
!	!LO:TX:a:t=|:problem	!	!LO:TX:a:t=|:problem	!	!	!	!	!
.	8ee\	.	8gg\	.	.	.	.	.
!	!LO:TX:a:t=|:problem	!	!LO:TX:a:t=|:problem	!	!	!	!	!
.	8dd\J	.	8ff\J	.	.	.	.	.
=85-	=85	=85	=85	=85	=85-	=85-	=85-	=85-
!	!LO:TX:a:t=|:problem	!	!LO:TX:a:t=|:problem	!	!	!	!	!
.	8cc\L	.	8ee\L	.	.	.	.	.
!	!LO:TX:a:t=|:problem	!	!LO:TX:a:t=|:problem	!	!	!	!	!
.	8b-\	.	8dd\	.	.	.	.	.
!	!LO:TX:a:t=|:problem	!	!LO:TX:a:t=|:problem	!	!	!	!	!
.	8a\J	.	8cc\J	.	.	.	.	.
=86-	=86	=86	=86	=86	=86-	=86-	=86-	=86-
!	!LO:TX:b:t=|:problem	!	!LO:TX:a:t=|:problem	!	!	!	!	!
4.r	8g/L	.	8b-\L	.	4.r	.	4.r	.
!	!LO:TX:b:t=|:problem	!	!LO:TX:a:t=|:problem	!	!	!	!	!
.	8f/	.	8a\	.	.	.	.	.
!	!LO:TX:b:t=|:problem	!	!LO:TX:a:t=|:problem	!	!	!	!	!
.	8e/J	.	8g\J	.	.	.	.	.
!LO:LB:g=original	!	!	!	!	!	!	!	!
=87	=87	=87	=87	=87	=87	=87	=87	=87
!	!	!LO:DY:a:rj	!	!LO:DY:a:t=f&colon;	!	!	!	!
4f\	4f/	f	4f/	f	4f/	.	4f/	.
(>16c\LL	(<16c/LL	.	(<16c/LL	.	(<16c/LL	.	(<16c/LL	.
32d\L	32d/L	.	32d/L	.	32d/L	.	32d/L	.
32e\JJJ)	32e/JJJ)	.	32e/JJJ)	.	32e/JJJ)	.	32e/JJJ)	.
=88	=88	=88	=88	=88	=88	=88	=88	=88
4f\	4f/	.	4f/	.	4f/	.	4f/	.
(>16c\LL	(<16c/LL	.	(<16c/LL	.	(<16c/LL	.	16c/LL	.
32d\L	32d/L	.	32d/L	.	32d/L	.	(<32d/L	.
32e\JJJ)	32e/JJJ)	.	32e/JJJ)	.	32e/JJJ)	.	32e/JJJ)	.
=89	=89	=89	=89	=89	=89	=89	=89	=89
!	!	!	!LO:TX:b:t=|:problem	!	!	!	!	!
8f\L	(<8f/L	.	8f/L	.	(<8f/L	.	(<8f/L	.
!	!	!	!LO:TX:b:t=|:problem	!	!	!	!	!
8a\	8a/)	.	8a/	.	8a/)	.	8a/)	.
!	!LO:TX:b:t=|:problem	!	!LO:TX:b:t=|:problem	!	!LO:TX:b:t=|:problem	!	!LO:TX:b:t=|:problem	!
8cc\J	8cc/J	.	8cc/J	.	8cc/J	.	8cc/J	.
=90	=90	=90	=90	=90	=90	=90	=90	=90
!	!	!	!LO:TX:b:t=|:problem	!	!	!	!	!
8b-\L	(<8b-/L	.	8b-/L	.	(<8b-/L	.	(<8b-/L	.
!	!	!	!LO:TX:b:t=|:problem	!	!	!	!	!
8g\	8g/)	.	8g/	.	8g/)	.	8g/)	.
!	!LO:TX:b:t=|:problem	!	!LO:TX:b:t=|:problem	!	!LO:TX:b:t=|:problem	!	!LO:TX:b:t=|:problem	!
8e\J	8e/J	.	8e/J	.	8e/J	.	8e/J	.
!	!	!	!LO:LB:g=original	!	!LO:LB:g=original	!	!	!
=91	=91	=91	=91	=91	=91	=91	=91	=91
!	!LO:TX:b:t=|:problem	!	!	!LO:DY:a:t=p&colon;	!	!	!	!
.	.	.	8qqe/	p	.	.	.	.
!	!	!LO:DY:a	!	!	!	!	!	!
4f\	8f/L	p	(<8f/L	.	8f/	.	8f/	.
.	(<8f/	.	8a/)	.	8r	.	8r	.
!	!	!	!LO:TX:b:t=|:problem	!	!	!	!	!
8r	8g/J)	.	8b-/J	.	8r	.	8r	.
=92	=92	=92	=92	=92	=92	=92	=92	=92
!	!LO:TX:b:t=|:problem	!	!	!	!	!	!	!
4.r	8a/L	.	(>8cc\L	.	4.r	.	4.r	.
!	!LO:TX:b:t=|:problem	!	!	!	!	!	!	!
.	8b-/	.	8dd\	.	.	.	.	.
!	!LO:TX:b:t=|:problem	!	!	!	!	!	!	!
.	8cc/J	.	8ee-X\J)	.	.	.	.	.
=93	=93	=93	=93	=93	=93	=93	=93	=93
!	!	!	!	!	!	!	!	!LO:DY:a:rj
[>4.a\	8r	.	8r	.	[>4.a/	.	[>4.cc\	p
!	!	!	!LO:TX:a:t=|:problem	!	!	!	!	!
.	8aa\L	.	8ccc\L	.	.	.	.	.
!	!	!	!LO:TX:a:t=|:problem	!	!	!	!	!
.	8ff#X\J	.	8aa\J	.	.	.	.	.
=94	=94	=94	=94	=94	=94	=94	=94	=94
!	!	!	!LO:TX:a:t=|:problem	!	!	!	!	!
4.a\]	8cc\L	.	8ff#X\L	.	4a/]	.	4cc\]	.
!	!	!	!LO:TX:a:t=|:problem	!	!	!	!	!
.	8a\	.	8cc\	.	.	.	.	.
!	!	!	!LO:TX:a:t=|:problem	!	!	!	!	!
.	8f#X\J	.	8a\J	.	8f#X/	.	8a/	.
=95	=95	=95	=95	=95	=95	=95	=95	=95
!	!	!	!	!LO:DY:a	!	!	!	!LO:DY:a:rj
4g\	4g/	.	4g/	f	4g/	.	4g/	f
(>16d\LL	(<16d/LL	.	(<16d/LL	.	(<16d/LL	.	16d/LL	.
32e\L	32e/L	.	32e/L	.	32e/L	.	(<32e/L	.
32f#X\JJJ)	32f#X/JJJ)	.	32f#X/JJJ)	.	32f#X/JJJ)	.	32f#X/JJJ)	.
=96	=96	=96	=96	=96	=96	=96	=96	=96
4g\	4g/	.	4g/	.	4g/	.	4g/	.
(>16d\LL	(<16d/LL	.	(<16d/LL	.	16d/LL	.	16d/LL	.
32e\L	32e/L	.	32e/L	.	32e/L	.	(<32e/L	.
!	!	!	!	!	!LO:TX:b:t=P:problem=# below	!	!	!
32f#X\JJJ)	32f#X/JJJ)	.	32f#X/JJJ)	.	32f#X/JJJ	.	32f#X/JJJ)	.
!	!LO:LB:g=original	!	!	!	!	!	!	!
=97	=97	=97	=97	=97	=97	=97	=97	=97
8g\L	(>8g\L	.	(>8g\L	.	8g/	.	(>8g\L	.
8b-\	8b-\)	.	8b-\)	.	8r	.	8b-\)	.
!	!LO:TX:a:t=|:problem	!	!LO:TX:a:t=|:problem	!	!	!	!LO:TX:a:t=|:problem	!
8dd\J	8dd\J	.	8dd\J	.	8r	.	8dd\J	.
=98	=98	=98	=98	=98	=98	=98	=98	=98
!	!	!	!	!	!LO:TX:a:t=P:problem=brak taktów w źródle	!	!	!
8cc\L	(>8cc\L	.	(>8cc\L	.	4.ryy	.	(>8cc\L	.
8a\	8a\)	.	8a\)	.	.	.	8a\)	.
!	!LO:TX:a:t=|:problem	!	!LO:TX:a:t=|:problem	!	!	!	!LO:TX:a:t=|:problem	!
8f#X\J	8f#X\J	.	8f#X\J	.	.	.	8f#X\J	.
=99	=99	=99	=99	=99	=99	=99	=99	=99
!	!LO:TX:b:t=|:problem	!LO:DY:a:rj:t=p&colon;	!	!LO:DY:a	!	!	!	!
8g\	8g/L	p	(>8g\L	p	4.ryy	.	8g/	.
8r	(<8g/	.	8bn\)	.	.	.	8r	.
!	!	!	!LO:TX:a:t=vi	!	!	!	!	!
!	!	!	!LO:TX:a:t=|:problem	!	!	!	!	!
8r	8a/J)	.	8dd\J	.	.	.	8r	.
=100	=100	=100	=100	=100	=100	=100	=100	=100
!	!	!	!LO:TX:a:t=de	!	!	!	!	!
4.r	(>8bn\L	.	(>8dd\L	.	4.ryy	.	4.r	.
.	8cc\)	.	8ee\)	.	.	.	.	.
!	!LO:TX:a:t=|:problem	!	!LO:TX:a:t=|:problem	!	!	!	!	!
.	8dd\J	.	8ff\J	.	.	.	.	.
!	!	!	!	!	!	!	!LO:LB:g=original	!
=101	=101	=101	=101	=101	=101	=101	=101	=101
!	!	!	!	!	!	!	!	!LO:DY:a:rj
4.bn\	8r	.	8r	.	4.ryy	.	[4.dd\	p
.	8bbn\L	.	8ddd\L	.	.	.	.	.
.	8gg#X\J	.	8bbn\J	.	.	.	.	.
!LO:LB:g=original	!	!	!	!	!	!	!	!
=102	=102	=102	=102	=102	=102	=102	=102	=102
4b-\	8dd\L	.	8gg#X\L	.	4.ryy	.	4dd\]	.
.	8b-\	.	8dd\	.	.	.	.	.
8g#X\	8g#X\J	.	8bn\J	.	.	.	8b-\	.
=103	=103	=103	=103	=103	=103	=103	=103	=103
!	!	!LO:DY:a:rj:t=f.	!	!LO:DY:a	!	!	!	!LO:DY:a:rj
4a\	4a/	f	4a/	f	4.ryy	.	4a/	f
(>16e\LL	(<16e/LL	.	16e/LL	.	.	.	(<16e/LL	.
32f\L	32f/L	.	32f#X/L	.	.	.	32f/L	.
32g#X\JJJ)	32g#X/JJJ)	.	32g/JJJ	.	.	.	32g#X/JJJ)	.
=104	=104	=104	=104	=104	=104	=104	=104	=104
4a\	4a/	.	4a/	.	4.ryy	.	4a/	.
(>16e\LL	(<16e/LL	.	16e/LL	.	.	.	(<16e/LL	.
32f\L	32f/L	.	32f#X/L	.	.	.	32f/L	.
32g#X\JJJ)	32g#X/JJJ)	.	32g/JJJ	.	.	.	32g#X/JJJ)	.
=105	=105	=105	=105	=105	=105	=105	=105	=105
(>8a\L	(>8a\L	.	(>8a\L	.	4.ryy	.	8a/	.
8cc\)	8cc\)	.	8cc\)	.	.	.	8r	.
!	!LO:TX:a:t=|:problem	!	!LO:TX:a:t=|:problem	!	!	!	!	!
8ee\J	8ee\J	.	8ee\J	.	.	.	8r	.
=106	=106	=106	=106	=106	=106	=106	=106	=106
8dd\L	(>8dd\L	.	(>8dd\L	.	4.ryy	.	4.r	.
8b-\	8b-X\)	.	8b-X\)	.	.	.	.	.
!	!LO:TX:a:t=|:problem	!	!LO:TX:a:t=|:problem	!	!	!	!	!
8f#X\J	8f#X\J	.	8f#X\J	.	.	.	.	.
!	!	!	!LO:LB:g=original	!	!	!	!	!
=107	=107	=107	=107	=107	=107	=107	=107	=107
4g\	4g/	.	4g/	.	4.ryy	.	4g/	.
(>16d\LL	(<16d/LL	.	16d/LL	.	.	.	(<16d/LL	.
32e\L	32e/L	.	32e/L	.	.	.	32e/L	.
32f#X\JJJ)	32f#X/JJJ)	.	32f#X/JJJ	.	.	.	32f#X/JJJ)	.
=108	=108	=108	=108	=108	=108	=108	=108	=108
4g\	4g/	.	4g/	.	4.ryy	.	4g/	.
(>16d\LL	16d/LL	.	16d/LL	.	.	.	16d/LL	.
32e\L	(<32e/L	.	32e/L	.	.	.	(<32e/L	.
32f#X\JJJ)	32f#X/JJJ)	.	32f#X/JJJ	.	.	.	32f#X/JJJ)	.
!	!LO:LB:g=original	!	!	!	!	!	!	!
=109	=109	=109	=109	=109	=109	=109	=109	=109
8g\L	(>8g\L	.	8g\L	.	4.ryy	.	8g/	.
8b-\	8b-\)	.	8b-\	.	.	.	8r	.
!	!LO:TX:a:t=|:problem	!	!	!	!	!	!	!
8dd\J	8dd\J	.	8dd\J	.	.	.	8r	.
!	!	!	!LO:LB:g=original	!	!	!	!	!
=110	=110	=110	=110	=110	=110	=110	=110	=110
8cc\L	(>8cc\L	.	(>8cc\L	.	4.r	.	4.r	.
8a\	8a\)	.	8a\)	.	.	.	.	.
!	!LO:TX:a:t=|:problem	!	!LO:TX:a:t=|:problem	!	!	!	!	!
8e\J	8e\J	.	8e\J	.	.	.	.	.
=111	=111	=111	=111	=111	=111	=111	=111	=111
4f\	4f/	.	4f/	.	4f/	.	4f/	.
(>16c\LL	(<16c/LL	.	(<16c/LL	.	(<16c/LL	.	(<16c/LL	.
32d\L	32d/L	.	32d/L	.	32d/L	.	32d/L	.
32e\JJJ)	32e/JJJ)	.	32e/JJJ)	.	32e/JJJ)	.	32e/JJJ)	.
=112	=112	=112	=112	=112	=112	=112	=112	=112
4f\	4f/	.	4f/	.	4f/	.	4f/	.
(>16c\LL	(<16c/LL	.	(<16c/LL	.	(<16c/LL	.	(<16c/LL	.
32d\L	32d/L	.	32d/L	.	32d/L	.	32d/L	.
32e\JJJ)	32e/JJJ)	.	32e/JJJ)	.	32e/JJJ)	.	32e/JJJ)	.
=113	=113	=113	=113	=113	=113	=113	=113	=113
!!mixed beam:problem
!LO:TX:t=P:problem=mixed beam	!	!	!	!	!	!	!	!
8f\L	8f/L	.	8f/L	.	4.f/	.	4.f/	.
8F/	(<16f/L	.	(<16f/L	.	.	.	.	.
.	16e/	.	16e/	.	.	.	.	.
8f\J	16f/	.	16f/	.	.	.	.	.
.	16g/JJ)	.	16g/JJ)	.	.	.	.	.
!	!	!	!LO:LB:g=original	!	!	!	!	!
=114	=114	=114	=114	=114	=114	=114	=114	=114
!!mixed beam:problem
!LO:TX:t=P:problem=mixed beam	!	!	!	!	!	!	!	!
8f\L	8f/L	.	8a/L	.	4.f/	.	4.a/	.
8F/	(<16f/L	.	(16a/L	.	.	.	.	.
.	16e/	.	16g/	.	.	.	.	.
8f\J	16f/	.	16a/	.	.	.	.	.
.	16g/JJ)	.	16b-/JJ)	.	.	.	.	.
=115	=115	=115	=115	=115	=115	=115	=115	=115
!LO:TX:a:t=P:problem=repetycja taktów 113-114	!	!	!	!	!	!	!	!
!!mixed beam:problem
!LO:TX:t=P:problem=mixed beam	!	!	!	!	!	!	!	!
8f\Lyy	8a/L	.	8cc\L	.	4.a/	.	4.ff\	.
8F/yy	16a/L	.	(>16ff\L	.	.	.	.	.
.	16g/	.	16ee\	.	.	.	.	.
8f\Jyy	16a/	.	16ff\	.	.	.	.	.
.	16b-/JJ	.	16gg\JJ)	.	.	.	.	.
=116	=116	=116	=116	=116	=116	=116	=116	=116
*	*tremolo	*	*	*	*	*	*	*
!!mixed beam:problem
!LO:TX:t=P:problem=mixed beam	!	!	!	!	!	!	!	!
8f\Lyy	16ff\LL	.	8aa\L	.	[>4.ff\	.	4.aa\	.
.	16ff\	.	.	.	.	.	.	.
8F/yy	16ff\	.	(>16aa\L	.	.	.	.	.
.	16ff\	.	16gg\)	.	.	.	.	.
8f\Jyy	16ff\	.	(>16aa\	.	.	.	.	.
.	16ff\JJ	.	16ff\JJ)	.	.	.	.	.
!LO:LB:g=original	!	!	!	!	!	!	!	!
=117	=117	=117	=117	=117	=117	=117	=117	=117
*tremolo	*	*	*	*	*	*	*	*
8B-/L	16ff\LL	.	16ddd\LL	.	4.ff\_>	.	[>4.ff\	.
.	16ff\	.	16gg\	.	.	.	.	.
8B-/	16ff\	.	16gg\	.	.	.	.	.
.	16ff\	.	16gg\	.	.	.	.	.
8B-/J	16ff\	.	16gg\	.	.	.	.	.
.	16ff\JJ	.	16gg\JJ	.	.	.	.	.
=118	=118	=118	=118	=118	=118	=118	=118	=118
8B-/L	16ff\LL	.	16ddd\LL	.	4.ff\_>	.	4.ff\]	.
.	16ff\	.	16gg\	.	.	.	.	.
8B-/	16ff\	.	16gg\	.	.	.	.	.
.	16ff\	.	16gg\	.	.	.	.	.
8B-/J	16ff\	.	16gg\	.	.	.	.	.
.	16ff\JJ	.	16gg\JJ	.	.	.	.	.
*Xtremolo	*Xtremolo	*	*	*	*	*	*	*
!	!	!	!	!	!	!	!LO:LB:g=original	!
=119	=119	=119	=119	=119	=119	=119	=119	=119
8B-/L	16ff\LL	.	16ddd\LL	.	4ff\]	.	4.ff\	.
.	16ff\	.	16ddd\	.	.	.	.	.
8B-/	16ff\	.	16gg\	.	.	.	.	.
.	16ff\JJ	.	16gg\	.	.	.	.	.
8Bn/J	16dd\LL	.	16ff\	.	8dd\	.	.	.
.	16dd\JJ	.	16ff\JJ	.	.	.	.	.
=120	=120	=120	=120	=120	=120	=120	=120	=120
!!mixed beam:problem
!	!LO:TX:t=P:problem=mixed beam	!	!LO:TX:t=P:problem=mixed beam	!	!	!	!	!
8c\L	16cc\LL	.	16ee\LL	.	8cc\L	.	8ee\L	.
.	16c/	.	16c/	.	.	.	.	.
8c\	16c/	.	16c/	.	8cc\	.	8cc\	.
.	16c/	.	16c/	.	.	.	.	.
8c\J	16c/	.	16c/	.	8cc\J	.	8cc\J	.
.	16c/JJ	.	16c/JJ	.	.	.	.	.
!	!	!	!	!	!LO:LB:g=original	!	!	!
=121	=121	=121	=121	=121	=121	=121	=121	=121
4c\	4c/	.	4c/	.	8cc\	.	8cc\	.
.	.	.	.	.	8r	.	8r	.
8r	8r	.	8r	.	8r	.	8r	.
!	!LO:LB:g=original	!	!	!	!	!	!	!
=122	=122	=122	=122	=122	=122	=122	=122	=122
!LO:TX:t=P:problem=nadprogramowa pauza	!	!	!	!	!	!	!	!
2.r	4.ryy	.	4.ryy	.	4.ryy	.	4.ryy	.
=123-	=123	=123	=123	=123	=123	=123	=123	=123
*	*	*	*tremolo	*	*	*	*	*
!	!	!	!	!LO:DY:a:rj	!	!	!	!
.	2.r	.	16ccc\LL	p	1.r	.	1.r	.
.	.	.	16ccc\	.	.	.	.	.
.	.	.	16ccc\	.	.	.	.	.
.	.	.	16ccc\	.	.	.	.	.
.	.	.	16ccc\	.	.	.	.	.
.	.	.	16ccc\JJ	.	.	.	.	.
=124-	=124-	=124	=124	=124	=124-	=124-	=124-	=124-
4.r	.	.	16ccc\LL	.	.	.	.	.
.	.	.	16ccc\	.	.	.	.	.
.	.	.	16ccc\	.	.	.	.	.
.	.	.	16ccc\	.	.	.	.	.
.	.	.	16ccc\	.	.	.	.	.
.	.	.	16ccc\JJ	.	.	.	.	.
=125	=125	=125	=125	=125	=125-	=125-	=125-	=125-
*	*tremolo	*	*	*	*	*	*	*
4f\	16aa\LL	.	16ccc\LL	.	.	.	.	.
.	16aa\	.	16ccc\	.	.	.	.	.
.	16aa\	.	16ccc\	.	.	.	.	.
.	16aa\	.	16ccc\	.	.	.	.	.
(>16c\LL	16aa\	.	16ccc\	.	.	.	.	.
32d\L	16aa\JJ	.	16ccc\JJ	.	.	.	.	.
32e\JJJ)	.	.	.	.	.	.	.	.
=126	=126	=126	=126	=126	=126-	=126-	=126-	=126-
4f\	16aa\LL	.	16ccc\LL	.	.	.	.	.
.	16aa\	.	16ccc\	.	.	.	.	.
.	16aa\	.	16ccc\	.	.	.	.	.
.	16aa\	.	16ccc\	.	.	.	.	.
(>16c\LL	16aa\	.	16ccc\	.	.	.	.	.
32d\L	16aa\JJ	.	16ccc\JJ	.	.	.	.	.
32e\JJJ)	.	.	.	.	.	.	.	.
=127	=127	=127	=127	=127	=127	=127	=127	=127
8f\L	16aa\LL	.	16ccc\LL	.	4.aa\	.	[>4.ccc\	.
.	16aa\	.	16ccc\	.	.	.	.	.
8a\	16aa\	.	16ccc\	.	.	.	.	.
.	16aa\	.	16ccc\	.	.	.	.	.
8cc\J	16aa\	.	16ccc\	.	.	.	.	.
.	16aa\JJ	.	16ccc\JJ	.	.	.	.	.
*	*Xtremolo	*	*	*	*	*	*	*
=128	=128	=128	=128	=128	=128	=128	=128	=128
8b-\L	16gg\LL	.	16ccc\LL	.	4gg\	.	4.ccc\]	.
.	16gg\	.	16ccc\	.	.	.	.	.
8g\	16gg\	.	16ccc\	.	.	.	.	.
.	16gg\	.	16ccc\	.	.	.	.	.
!LO:TX:a:t=|:problem	!	!	!	!	!	!	!	!
8e\J	16bb-\	.	16ccc\	.	8bb-\	.	.	.
.	16bb-\JJ	.	16ccc\JJ	.	.	.	.	.
!	!	!	!LO:LB:g=original	!	!	!	!	!
=129	=129	=129	=129	=129	=129	=129	=129	=129
*	*tremolo	*	*	*	*	*	*	*
!LO:TX:a:t=P:problem=repetycja taktów 125-128	!	!	!	!	!	!	!	!
4f\yy	16aa\LL	.	16ccc\LL	.	8aa\	.	8ccc\	.
.	16aa\	.	16ccc\	.	.	.	.	.
.	16aa\	.	16ccc\	.	8r	.	8r	.
.	16aa\	.	16ccc\	.	.	.	.	.
(>16c\LLyy	16aa\	.	16ccc\	.	8r	.	8r	.
32d\Lyy	16aa\JJ	.	16ccc\JJ	.	.	.	.	.
32e\JJJ)yy	.	.	.	.	.	.	.	.
=130	=130	=130	=130	=130	=130	=130	=130	=130
4f\yy	16aa\LL	.	16ccc\LL	.	4.r	.	4.r	.
.	16aa\	.	16ccc\	.	.	.	.	.
.	16aa\	.	16ccc\	.	.	.	.	.
.	16aa\	.	16ccc\	.	.	.	.	.
(>16c\LLyy	16aa\	.	16ccc\	.	.	.	.	.
32d\Lyy	16aa\JJ	.	16ccc\JJ	.	.	.	.	.
32e\JJJ)yy	.	.	.	.	.	.	.	.
=131	=131	=131	=131	=131	=131	=131	=131	=131
(8f\Lyy	16aa\LL	.	16ccc\LL	.	4.aa\	.	[>4.ccc\	.
.	16aa\	.	16ccc\	.	.	.	.	.
8a\)yy	16aa\	.	16ccc\	.	.	.	.	.
.	16aa\	.	16ccc\	.	.	.	.	.
8cc\Jyy	16aa\	.	16ccc\	.	.	.	.	.
.	16aa\JJ	.	16ccc\JJ	.	.	.	.	.
*	*Xtremolo	*	*	*	*	*	*	*
=132	=132	=132	=132	=132	=132	=132	=132	=132
(>8b-\Lyy	16gg\LL	.	16ccc\LL	.	4gg\	.	4.ccc\]	.
.	16gg\	.	16ccc\	.	.	.	.	.
8g\)yy	16gg\	.	16ccc\	.	.	.	.	.
.	16gg\	.	16ccc\	.	.	.	.	.
!LO:TX:a:t=|:problem	!	!	!	!	!	!	!	!
8e\Jyy	16bb-\	.	16ccc\	.	8bb-\	.	.	.
.	16bb-\JJ	.	16ccc\JJ	.	.	.	.	.
*	*	*	*Xtremolo	*	*	*	*	*
=133	=133	=133	=133	=133	=133	=133	=133	=133
!!mixed beam:problem
!	!LO:TX:t=P:problem=mixed beam	!LO:DY:a:rj	!	!LO:DY:a:rj	!	!	!	!
8f\L	16aa\LL	f	8ccc\L	f	8aa\	.	8ccc\	.
.	16aa\	.	.	.	.	.	.	.
8a\	16a/	.	(>16ff\L	.	8r	.	8r	.
.	16a/	.	16ee\	.	.	.	.	.
8cc\J	16a/	.	(>16ff\)	.	8r	.	8r	.
.	16a/JJ	.	16gg\JJ)	.	.	.	.	.
=134	=134	=134	=134	=134	=134	=134	=134	=134
*tremolo	*tremolo	*	*	*	*	*	*	*
!	!	!	!	!	!	!	!	!LO:DY:a:rj
8cc\L	16a/LL	.	8ff\L	.	4.r	.	4.r	f
.	16a/	.	.	.	.	.	.	.
8cc\	16a/	.	(>16ff\L	.	.	.	.	.
.	16a/	.	16ee\	.	.	.	.	.
8cc\J	16a/	.	16ff\)	.	.	.	.	.
.	16a/JJ	.	16gg\JJ	.	.	.	.	.
*Xtremolo	*	*	*	*	*	*	*	*
=135	=135	=135	=135	=135	=135	=135	=135	=135
!!mixed beam:problem
!LO:TX:t=P:problem=mixed beam	!	!	!	!	!	!LO:DY:a:rj	!	!
8f\L	16a/LL	.	16ff\LL	.	[<4.a/	f	4.cc\	.
.	16a/	.	16cc\	.	.	.	.	.
8F/	16a/	.	16cc\	.	.	.	.	.
.	16a/	.	16cc\	.	.	.	.	.
8f\J	16a/	.	16cc\	.	.	.	.	.
.	16a/JJ	.	16cc\JJ	.	.	.	.	.
=136	=136	=136	=136	=136	=136	=136	=136	=136
!!mixed beam:problem
!LO:TX:t=P:problem=mixed beam	!	!	!	!	!	!	!	!
8f\L	16a/LL	.	16ff\LL	.	4.a/]	.	4.cc\	.
.	16a/	.	16cc\	.	.	.	.	.
8F/	16a/	.	16cc\	.	.	.	.	.
.	16a/	.	16cc\	.	.	.	.	.
8f\J	16a/	.	16cc\	.	.	.	.	.
.	16a/JJ	.	16cc\JJ	.	.	.	.	.
=137	=137	=137	=137	=137	=137	=137	=137	=137
!!mixed beam:problem
!	!	!	!LO:TX:t=P:problem=mixed beam	!	!	!	!	!
8B-/L	16f/LL	.	16dd\LL	.	4.f/	.	4dd\	.
.	16f/	.	16dd\	.	.	.	.	.
8B-/	16f/	.	16dd\	.	.	.	.	.
.	16f/	.	16dd\	.	.	.	.	.
8Bn/J	16f/	.	16Bn/	.	.	.	8bn\	.
.	16f/JJ	.	16B/JJ	.	.	.	.	.
*	*Xtremolo	*	*	*	*	*	*	*
=138	=138	=138	=138	=138	=138	=138	=138	=138
*tremolo	*	*	*	*	*	*	*	*
8c/L	16f/LL	.	4.c/	.	4f/	.	4.cc\	.
.	16f/	.	.	.	.	.	.	.
8c/	16f/	.	.	.	.	.	.	.
.	16f/JJ	.	.	.	.	.	.	.
8c/J	16ff\LL	.	.	.	8ff\	.	.	.
.	16ff\JJ	.	.	.	.	.	.	.
!LO:LB:g=original	!	!	!	!	!	!	!	!
=139	=139	=139	=139	=139	=139	=139	=139	=139
8c\L	16ff\LL	.	4.gg\	.	4ff\	.	4.ggT>\	.
.	16ff\	.	.	.	.	.	.	.
8c\	16ff\	.	.	.	.	.	.	.
.	16ff\	.	.	.	.	.	.	.
8c\J	16ee\	.	.	.	8ee\	.	.	.
.	16ee\JJ	.	.	.	.	.	.	.
*Xtremolo	*	*	*	*	*	*	*	*
!	!	!	!LO:LB:g=original	!	!	!	!	!
=140	=140	=140	=140	=140	=140	=140	=140	=140
!	!	!	!	!LO:DY:a:rj:t=p&colon;	!	!	!LO:N:vis=4	!
4f\	8ff\	.	16ff\LL	p	8ff\	.	8ff\	.
.	.	.	16ccc\	.	.	.	.	.
.	8r	.	16ccc\	.	8r	.	8r	.
.	.	.	16ccc\	.	.	.	.	.
8r	8r	.	16ccc\	.	8r	.	8r	.
.	.	.	16ccc\JJ	.	.	.	.	.
!	!LO:LB:g=original	!	!	!	!LO:LB:g=original	!	!	!
=141	=141	=141	=141	=141	=141	=141	=141	=141
*	*	*	*tremolo	*	*	*	*	*
4.r	4.r	.	16ccc\LL	.	2.r	.	2.r	.
.	.	.	16ccc\	.	.	.	.	.
.	.	.	16ccc\	.	.	.	.	.
.	.	.	16ccc\	.	.	.	.	.
.	.	.	16ccc\	.	.	.	.	.
.	.	.	16ccc\JJ	.	.	.	.	.
=142	=142	=142	=142	=142	=142-	=142-	=142-	=142-
*	*tremolo	*	*	*	*	*	*	*
!	!	!LO:DY:a:rj:t=p&colon;	!	!	!	!	!	!
4f\	16aa\LL	p	16ccc\LL	.	.	.	.	.
.	16aa\	.	16ccc\	.	.	.	.	.
.	16aa\	.	16ccc\	.	.	.	.	.
.	16aa\	.	16ccc\	.	.	.	.	.
(>16c\LL	16aa\	.	16ccc\	.	.	.	.	.
32d\L	16aa\JJ	.	16ccc\JJ	.	.	.	.	.
32e\JJJ)	.	.	.	.	.	.	.	.
!	!	!	!LO:LB:g=original	!	!	!	!	!
=143	=143	=143	=143	=143	=143-	=143-	=143-	=143-
4f\	16aa\LL	.	16ccc\LL	.	4.r	.	4.r	.
.	16aa\	.	16ccc\	.	.	.	.	.
.	16aa\	.	16ccc\	.	.	.	.	.
.	16aa\	.	16ccc\	.	.	.	.	.
(>16c\LL	16aa\	.	16ccc\	.	.	.	.	.
32d\L	16aa\JJ	.	16ccc\JJ	.	.	.	.	.
32e\JJJ)	.	.	.	.	.	.	.	.
=144	=144	=144	=144	=144	=144	=144	=144	=144
!	!	!	!	!	!	!	!	!LO:DY:a:rj
(>8f\L	16aa\LL	.	16ccc\LL	.	4.aa\	.	[>4.ccc\	p
.	16aa\	.	16ccc\	.	.	.	.	.
8a\)	16aa\	.	16ccc\	.	.	.	.	.
.	16aa\	.	16ccc\	.	.	.	.	.
8cc\J	16aa\	.	16ccc\	.	.	.	.	.
.	16aa\JJ	.	16ccc\JJ	.	.	.	.	.
*	*Xtremolo	*	*	*	*	*	*	*
!	!	!	!	!	!	!	!LO:LB:g=original	!
=145	=145	=145	=145	=145	=145	=145	=145	=145
(>8b-\L	16gg\LL	.	16ccc\LL	.	4gg\	.	4.ccc\_>	.
.	16gg\	.	16ccc\	.	.	.	.	.
8g\)	16gg\	.	16ccc\	.	.	.	.	.
.	16gg\	.	16ccc\	.	.	.	.	.
!LO:TX:a:t=|:problem	!	!	!	!	!	!	!	!
8e\J	16bb-\	.	16ccc\	.	8bb-\	.	.	.
.	16bb-\JJ	.	16ccc\JJ	.	.	.	.	.
=146	=146	=146	=146	=146	=146	=146	=146	=146
*	*tremolo	*	*	*	*	*	*	*
!LO:TX:a:t=P:problem=repetycja taktów 142-145	!	!	!	!	!	!	!	!
4f\yy	16aa\LL	.	16ccc\LL	.	8aa\	.	8ccc\]	.
.	16aa\	.	16ccc\	.	.	.	.	.
.	16aa\	.	16ccc\	.	8r	.	8r	.
.	16aa\	.	16ccc\	.	.	.	.	.
(>16c\LLyy	16aa\	.	16ccc\	.	8r	.	8r	.
32d\Lyy	16aa\JJ	.	16ccc\JJ	.	.	.	.	.
32e\JJJ)yy	.	.	.	.	.	.	.	.
=147	=147	=147	=147	=147	=147	=147	=147	=147
!	!	!	!	!	!	!	!LO:TX:a:t=P:problem=brak taktów 147-150 w źródle	!
4f\yy	16aa\LL	.	16ccc\LL	.	4.r	.	4.ryy	.
.	16aa\	.	16ccc\	.	.	.	.	.
.	16aa\	.	16ccc\	.	.	.	.	.
.	16aa\	.	16ccc\	.	.	.	.	.
(>16c\LLyy	16aa\	.	16ccc\	.	.	.	.	.
32d\Lyy	16aa\JJ	.	16ccc\JJ	.	.	.	.	.
32e\JJJ)yy	.	.	.	.	.	.	.	.
=148	=148	=148	=148	=148	=148	=148	=148	=148
(>8f\Lyy	16aa\LL	.	16ccc\LL	.	4.aa\	.	4.ryy	.
.	16aa\	.	16ccc\	.	.	.	.	.
8a\)yy	16aa\	.	16ccc\	.	.	.	.	.
.	16aa\	.	16ccc\	.	.	.	.	.
8cc\Jyy	16aa\	.	16ccc\	.	.	.	.	.
.	16aa\JJ	.	16ccc\JJ	.	.	.	.	.
*	*Xtremolo	*	*	*	*	*	*	*
=149	=149	=149	=149	=149	=149	=149	=149	=149
(>8b-\Lyy	16gg\LL	.	16ccc\LL	.	4gg\	.	4.ryy	.
.	16gg\	.	16ccc\	.	.	.	.	.
8g\)yy	16gg\	.	16ccc\	.	.	.	.	.
.	16gg\	.	16ccc\	.	.	.	.	.
!LO:TX:a:t=|:problem	!	!	!	!	!	!	!	!
8e\Jyy	16bb-\	.	16ccc\	.	8bb-\	.	.	.
.	16bb-\JJ	.	16ccc\JJ	.	.	.	.	.
*	*	*	*Xtremolo	*	*	*	*	*
=150	=150	=150	=150	=150	=150	=150	=150	=150
!!mixed beam:problem
!	!LO:TX:t=P:problem=mixed beam	!LO:DY:a:rj	!	!LO:DY:a:rj	!	!	!	!
8f\L	16aa\LL	f	8ccc\L	f	8aa\	.	4.ryy	.
.	16a/	.	.	.	.	.	.	.
8a\	16a/	.	(>16ff\L	.	8r	.	.	.
.	16a/	.	16ee\	.	.	.	.	.
8cc\J	16a/	.	(>16ff\)	.	8r	.	.	.
.	16a/JJ	.	16gg\JJ)	.	.	.	.	.
=151	=151	=151	=151	=151	=151	=151	=151	=151
*tremolo	*tremolo	*	*	*	*	*	*	*
8cc\L	16a/LL	.	8ff\L	.	4.r	.	4.r	.
.	16a/	.	.	.	.	.	.	.
8cc\	16a/	.	(>16ff\L	.	.	.	.	.
.	16a/	.	16ee\	.	.	.	.	.
8cc\J	16a/	.	(>16ff\)	.	.	.	.	.
.	16a/JJ	.	16gg\JJ)	.	.	.	.	.
*Xtremolo	*	*	*	*	*	*	*	*
=152	=152	=152	=152	=152	=152	=152	=152	=152
!!mixed beam:problem
!LO:TX:t=P:problem=mixed beam	!	!	!	!	!	!	!	!LO:DY:a:rj:t=f&colon;
8f\L	16a/LL	.	16ff\LL	.	4.a/	.	[>4.cc\	f
.	16a/	.	16cc\	.	.	.	.	.
8F/	16a/	.	16cc\	.	.	.	.	.
.	16a/	.	16cc\	.	.	.	.	.
8f\J	16a/	.	16cc\	.	.	.	.	.
.	16a/JJ	.	16cc\JJ	.	.	.	.	.
=153	=153	=153	=153	=153	=153	=153	=153	=153
!!mixed beam:problem
!LO:TX:t=P:problem=mixed beam	!	!	!	!	!	!	!	!
8f\L	16a/LL	.	16ff\LL	.	4.a/	.	4.cc\]	.
.	16a/	.	16cc\	.	.	.	.	.
8F/	16a/	.	16cc\	.	.	.	.	.
.	16a/	.	16cc\	.	.	.	.	.
8f\J	16a/	.	16cc\	.	.	.	.	.
.	16a/JJ	.	16cc\JJ	.	.	.	.	.
=154	=154	=154	=154	=154	=154	=154	=154	=154
!!mixed beam:problem
!	!	!	!LO:TX:t=P:problem=mixed beam	!	!	!	!	!
8B-/L	16f/LL	.	16dd\LL	.	4.f/	.	4dd\	.
.	16f/	.	16dd\	.	.	.	.	.
8B-/	16f/	.	16dd\	.	.	.	.	.
.	16f/	.	16dd\	.	.	.	.	.
8Bn/J	16f/	.	16Bn/	.	.	.	8bn\	.
.	16f/JJ	.	16B/JJ	.	.	.	.	.
*	*Xtremolo	*	*	*	*	*	*	*
=155	=155	=155	=155	=155	=155	=155	=155	=155
*tremolo	*	*	*	*	*	*	*	*
!!mixed beam:problem
!	!LO:TX:t=P:problem=mixed beam	!	!	!	!	!	!	!
8c\L	16f/LL	.	4.c/	.	4f/	.	4.cc\	.
.	16f/	.	.	.	.	.	.	.
8c\	16f/	.	.	.	.	.	.	.
.	16f/	.	.	.	.	.	.	.
8c\J	16ff\	.	.	.	8ff\	.	.	.
.	16ff\JJ	.	.	.	.	.	.	.
=156	=156	=156	=156	=156	=156	=156	=156	=156
8c\L	16ff\LL	.	4.ggT>\	.	4ff\	.	4.ggT>\	.
.	16ff\	.	.	.	.	.	.	.
8c\	16ff\	.	.	.	.	.	.	.
.	16ff\	.	.	.	.	.	.	.
8c\J	16ee\	.	.	.	8ee\	.	.	.
.	16ee\JJ	.	.	.	.	.	.	.
*Xtremolo	*	*	*	*	*	*	*	*
!	!LO:LB:g=original	!	!LO:LB:g=original	!	!	!	!	!
=157	=157	=157	=157	=157	=157	=157	=157	=157
8f\L	16ff\LL	.	16ff\LL	.	8ff\L	.	8ff\L	.
.	16ff\JJ	.	16ff\JJ	.	.	.	.	.
8cc\	16ccc\LL	.	16ccc\LL	.	8ccc\	.	8ccc\	.
.	16ccc\JJ	.	16ccc\JJ	.	.	.	.	.
8a\J	16aa\LL	.	16aa\LL	.	8aa\J	.	8aa\J	.
.	16aa\JJ	.	16aa\JJ	.	.	.	.	.
=158	=158	=158	=158	=158	=158	=158	=158	=158
8f\L	16ff\LL	.	16ff\LL	.	8ff\L	.	8ff\L	.
.	16ff\	.	16ff\JJ	.	.	.	.	.
8cc\	16cc\	.	16cc\LL	.	8cc\	.	8cc\	.
.	16cc\	.	16cc\JJ	.	.	.	.	.
8a\J	16a\	.	16a/LL	.	8a\J	.	8a\J	.
.	16a\JJ	.	16a/JJ	.	.	.	.	.
!LO:LB:g=original	!	!	!	!	!LO:LB:g=original	!	!	!
=159	=159	=159	=159	=159	=159	=159	=159	=159
8f\L	8f/L	.	8f/L	.	8f/L	.	8f/L	.
8f\	8f/ 8a/ 8ff/	.	8f/ 8cc/ 8ff/	.	8f/	.	8f/	.
8f\J	8f/J 8a/ 8ff/	.	8f/J 8cc/ 8ff/	.	8f/J	.	8f/J	.
=160	=160	=160	=160	=160	=160	=160	=160	=160
4f\	4f/ 4a/ 4ff/	.	4.f/ 4.cc/ 4.ff/	.	4f/	.	4f/	.
8r	8r	.	.	.	8r	.	8r	.
==:|:;>	==:|;>	==	==:|:;>	==	==:|:;>	==	==:|:;;>	==:|:
*-	*-	*-	*-	*-	*-	*-	*-	*-
!!!system-decoration: [(g1)][(g2)]
!!!RDF**kern: > = above
!!!RDF**kern: < = below
!!!ENC: Berenika Jozajtis
!!!END: 2021-02-20
!!!EED: Jędrzej Mróz
!!!EEV: 2022-01-11
